X: 524
T: Down Home Waltz
C:Buck White
B: jims roots
M:3/4
L:1/8
Q: 1/4=100
K:G
V:1 
x def/ || "G"g2 f2 e2 | d2 c2 B2 | "Am"A3 B cd | "C"e6 | "D"f3  g ef | "D7"d3  e cd |
"G"(B6 | B3) d ef  || "G"g2 f2 e2 | d2 c2 B2 | "Am"A3 B cd | "C"e6 | "D"fg ef de |
"D7"cd Bc AB | "G"(G6 | G3) F G_A || "Am"A3  B ce | "D"(d4 d)c | "Bm"B3 d fa | "Em"(g4 g)f |
"Am"e3  f gb | "A"a4 e2 | "C"g6 | "D"f6 || "G"g2 f2 e2 | d2 c2 B2 | "Am"A3 B cd | "C"e6 | "D"fg ef de |
"D7"cd Bc AB | "G"(G6 | G3) |]
% abcbook-tune_id 6298c245b1a3013e38d69739


% abcbook-boost 0
% abcbook-tablature 
% abcbook-transpose 
% abcbook-lastupdated 1654178374013
% abcbook-soundfonts 
% abcbook-repeats 1


